Obsidian-SemiLight/actions/16s/measure.svg

<svg viewBox="0 0 16 16" xmlns="http://www.w3.org/2000/svg"><path d="m2 3v1 4 1h12v-1-4-1zm1 1h1v2h1v-2h2v2h1v-2h2v2h1v-2h2v4h-10zm2 6-3 2 3 2zm6 0v4l3-2z" fill="#4d4d4d"/></svg>

<svg xmlns="http://www.w3.org/2000/svg" viewBox="0 0 16 16">
  <defs id="defs3051">
    <style type="text/css" id="current-color-scheme">
      .ColorScheme-Text {
        color:#4d4d4d;
      }
      </style>
  </defs>
 <path style="fill:currentColor;fill-opacity:1;stroke:none" 
     d="M 2 3 L 2 4 L 2 8 L 2 9 L 14 9 L 14 8 L 14 4 L 14 3 L 2 3 z M 3 4 L 4 4 L 4 6 L 5 6 L 5 4 L 7 4 L 7 6 L 8 6 L 8 4 L 10 4 L 10 6 L 11 6 L 11 4 L 13 4 L 13 8 L 3 8 L 3 4 z M 5 10 L 2 12 L 5 14 L 5 10 z M 11 10 L 11 14 L 14 12 L 11 10 z "
     class="ColorScheme-Text"
     />
</svg>
